X: 6241
T: Carol Gibson's Patter
R: jig
M: 6/8
K: Dmajor
|d2d cAA|FGA GFD|d2d cAA|fga gfe|
d2d cAA|FGA GFD|dad gdf|gfe d3:|
|:EAB cBA|EEd cBA|EAB cBA|DEF GFD|
EAB cBA|EEd cBA|dad gdf|gfe d3:|

